X: 1
T: Storpolskan efter br\"oderna Tillman
O: Sweden
R: hambo-polska
Z: 2009 John Chambers <jc:trillian.mit.edu>
S: handwritten notes from the 1970s, from some recording
M: 3/16
L: 1/16
K: Gm
|: d2^f g2b a2g |^f3 d6- | d2^f g2b a2g | ge2 f6 \
| d2^f g2b a2g |^f3 d6- | d2^f g2b a2g | ^f3 d6- |
| d2c A2c BAB | c2d edc d3- | d2c A2c BAB | c2d edc d3- \
| d2^f g2b a2g |^f3 d3 BAB | d3 cAc B2A | G^F2 G6- :|
|: G2A B2A ^F2G | ABc edc d3- | d3 (4cdcA B2A | ^F2G A2G =F3- \
| F3 (4BcBA ^F2G | ABc edc d3- | d3 (4cdcA B2A | G^F3 G6 :|
